!!!COM: Palestrina, Giovanni Perluigi da
!!!OPR: In te Domine speravi (1593-4)
!!!OTL: Agnus I
**kern	**kern	**kern	**kern
*Ibass	*Itenor	*Icalto	*Icant
!Bassus	!Tenor	!Altus	!Cantus
*clefF4	*clefGv2	*clefG2	*clefG2
*k[]	*k[]	*k[]	*k[]
*D:dor	*D:dor	*D:dor	*D:dor
*M4/2	*M4/2	*M4/2	*M4/2
=1	=1	=1	=1
1r	0r	1e	0r
1A	.	1e	.
=2	=2	=2	=2
1A	0r	2.a	0r
.	.	4g	.
[1d	.	4f	.
.	.	4e	.
.	.	[2f	.
=3	=3	=3	=3
2d]	0r	2f]	1a
4c	.	4e	.
4B	.	4d	.
2c	.	2e	1a
2d	.	[2a	.
=4	=4	=4	=4
1B	0r	2a]	1.dd
.	.	2g	.
[1A	.	2f	.
.	.	4e	4cc
.	.	4d	4b
=5	=5	=5	=5
2A]	0r	2e	2cc
2D	.	2f	2dd
2E	.	2g	2b
2F	.	[2a	2a
=6	=6	=6	=6
0E	1e	2a]	1b
.	.	4g	.
.	.	4f	.
.	1e	2.g	2r
.	.	.	[2ee
.	.	4e	.
=7	=7	=7	=7
0r	1.a	1f	2ee]
.	.	.	2dd
.	.	[1e	2cc
.	4g	.	4b
.	4f	.	4a
=8	=8	=8	=8
0r	2g	2e]	2b
.	2a	2c	2.ee
.	1f	1d	.
.	.	.	4dd
.	.	.	[2dd
=9	=9	=9	=9
1A	1.e	[0a	2dd]
.	.	.	4cc
.	.	.	4b
1A	.	.	4cc
.	.	.	4dd
.	2e	.	4ee
.	.	.	4cc
=10	=10	=10	=10
1.d	2f	0a]	4dd
.	.	.	4ee
.	2d	.	1ff
.	1A	.	.
4c	.	.	4ee
4B	.	.	4dd
=11	=11	=11	=11
2c	2.a	1r	2ee
2.d	.	.	2ff
.	4g	.	.
.	4f	1d	1dd
4c	4e	.	.
4B	4d	.	.
4A	4c	.	.
=12	=12	=12	=12
4G	4B	1d	0r
4F	4A	.	.
4F	1d	.	.
8E	.	.	.
8D	.	.	.
1E	.	[1g	.
.	2c#	.	.
=13	=13	=13	=13
2D	1d	2g]	1a
2d	.	4f	.
.	.	4e	.
2d	1r	2f	2a
2G	.	2g	[2dd
=14	=14	=14	=14
1A	2r	1e	2dd]
.	2A	.	4cc
.	.	.	4b
2r	2A	1a	2cc
2D	[2d	.	4dd
.	.	.	4ee
=15	=15	=15	=15
2D	2d]	[0a	2ff
1A	4c#	.	4ee
.	4B	.	4dd
.	2c#	.	2ee
[2D	4d	.	[2ff
.	4e	.	.
=16	=16	=16	=16
4D]	1f	1a]	4ff]
4E	.	.	4ee
4F	.	.	1dd
4G	.	.	.
1A	1e	2.a	.
.	.	.	2cc#
.	.	4g	.
=17	=17	=17	=17
2r	1d	2f#	4dd
.	.	.	4cc
2G	.	2g	4b
.	.	.	4a
1G	1r	[1d	2.b
.	.	.	4g
=18	=18	=18	=18
2F	2r	1d]	2a
2G	2d	.	2b
4D	1d	1r	[1a
4E	.	.	.
4F	.	.	.
4G	.	.	.
=19	=19	=19	=19
2A	2c#	2r	1a]
2D	2d	2a	.
1F	4A	1a	1r
.	4B	.	.
.	4c	.	.
.	4d	.	.
=20	=20	=20	=20
2E	2e	2g	0r
2F	2A	2a	.
2G	4B	4d	.
.	4c	4e	.
[2D	4d	4f	.
.	4e	4g	.
=21	=21	=21	=21
4D]	2.f	2a	0r
4E	.	.	.
4F	.	2d	.
4G	8e	.	.
.	8d	.	.
1A	2c	1f	.
.	[2d	.	.
=22	=22	=22	=22
1A	2d]	2e	1r
.	2c	2a	.
2.d	2.f	2b-	2r
.	.	[2a	2dd
4c	4e	.	.
=23	=23	=23	=23
1B-	1d	2a]	1dd
.	.	2g	.
2A	2e	1a	2cc#
[2d	[2f	.	2dd
=24	=24	=24	=24
4d]	2f]	2r	4a
4c	.	.	4b
4A	2e	2a	4cc
4B	.	.	4dd
2c	2r	2g	2ee
2d	2a	[2f	2a
=25	=25	=25	=25
1A	1a	4f]	1cc
.	.	4e	.
.	.	4c	.
.	.	4d	.
1r	2g#	2e	2b
.	2a	2cc	2ee
=26	=26	=26	=26
0r	4d	2.a	1ff
.	4e	.	.
.	4f	.	.
.	4g	4b	.
.	2a	2cc	2ee
.	2d	[2b	[2dd
=27	=27	=27	=27
0r	1f	4b]	4dd]
.	.	4a	4cc
.	.	1a	4cc
.	.	.	8b
.	.	.	8a
.	1e	.	1b
.	.	2g#	.
=28	=28	=28	=28
2r	1A	0a	2a
1A	.	.	1cc
.	2r	.	.
2A	[2e	.	2cc
=29	=29	=29	=29
2G	2e]	1r	2b
2A	2e	.	2cc
2B-	2d	2r	2dd
4A	2e	[2a	[2cc
4G	.	.	.
=30	=30	=30	=30
4F	2f	2a]	4cc]
4G	.	.	4b
4A	2.e	2a	4cc
4B	.	.	4dd
2.c	.	2g	1ee
.	4d	.	.
.	4e	2a	.
8B-	4f	.	.
8A	.	.	.
=31	=31	=31	=31
2G	2g	2b-	0r
2A	2.f	4a	.
.	.	4g	.
1B-	.	2f	.
.	4e	.	.
.	[2d	2g	.
=32	=32	=32	=32
1A	2d]	1a	2r
.	4c#	.	1ee
.	4B	.	.
2.A	1c#	2r	.
.	.	2e	2ee
4A	.	.	.
=33	=33	=33	=33
2B	0r	1g	2dd
2c	.	.	2ee
2d	.	2f	2ff
4c	.	2g	4ee
4B	.	.	4dd
=34	=34	=34	=34
1A	2r	4a	4cc
.	.	4b	4dd
.	1e	4cc	4ee
.	.	4a	4ff
1E	.	2b	1gg
.	2e	2g	.
=35	=35	=35	=35
0r	2d	2a	2ff
.	2e	2g	4ee
.	.	.	4dd
.	2f	2a	2cc
.	4e	[2cc	[2ee
.	4d	.	.
=36	=36	=36	=36
1r	2c	4cc]	2ee]
.	.	4b	.
.	2d	1a	4dd
.	.	.	4cc
2r	2.e	.	2b
[2E	.	4g	2b
.	8d	4f	.
.	8c	.	.
=37	=37	=37	=37
2E]	2B	1g	1ee
2E	2c	.	.
2D	2d	2f	2a
2E	4c	4e	[2cc
.	4B	4d	.
=38	=38	=38	=38
1F	1A	2c	4cc]
.	.	.	4b
.	.	2d	1a
1E	2B	1e	.
.	[2e	.	2g
=39	=39	=39	=39
2.A	2e]	2r	2.cc
.	2e	2A	.
4A	.	.	8dd
.	.	.	8ee
2D	2d	2a	2ff
2C#	2e	[2a	[2ee
=40	=40	=40	=40
4D	1f	2a]	2ee]
4E	.	.	.
4F	.	2a	1dd
4G	.	.	.
1A	1e	1a	.
.	.	.	2cc#
=41	=41	=41	=41
2D	2d	2f	[0dd
1D	2f	1a	.
.	4f	.	.
.	4e	.	.
2D	4d	2a	.
.	4c	.	.
=42	=42	=42	=42
2G	2B-	2g	0dd]
2F#	2A	2a	.
1G	2G	1b-	.
.	[2g	.	.
=43	=43	=43	=43
[0D	2g]	[0a	[0dd
.	4f#	.	.
.	4e	.	.
.	1f#	.	.
=44	=44	=44	=44
0D]	0f#	0a]	0dd]
==	==	==	==
*-	*-	*-	*-
!!!CDT: 1525/^1526/-1594/2/2
!!!OCY: Italia
!!!AGN: Mass (Parody)
!!!AST: renaissance, vocal
!!!ASW: Motet (?Lhéritier)
!!!PWK: Masses, Book 6
!!!RNB: Cadence finals: A
!!!YOR: Le Opere Complete, v. 21, p. 26
!!!YOO: Rome, Italy: Fratelli Scalera
!!!END: 1992//
!!!EED: John Miller
!!!YEC: Copyright 2000, John Miller
!!!YEN: United States of America
!!!YEM: Rights to all derivative electronic formats reserved.
!!!YEM: Refer to licensing agreement for further details.
!!!YEM: This file must be accompanied by the licensing agreement.
!!!YEM: A copy of the licensing agreement may be found at http://www.music-cog.ohio-state.edu/HumdrumDatabases/Palestrina/license.txt
!!!EMD: converted to Humdrum by Bret Aarden
